X:1
T:Title
%%score { 1 | ( 2 3 ) }
L:1/8
M:6/8
K:G
V:1 treble nm="Grand Piano"
V:2 bass 
V:3 bass 
V:1
 z3 z2[Q:1/4=100] D | G2 G G2 A | B2 B B2 G | [FA]2 [FA] [FA][GB][Ac] | [Bd]2 [Ac] B3 |[M:1/8] D | %6
[M:3/4] G2 G G2 A | B2 B B2 G | .[CEA]2 [G,CE] [G,B,D]2 [B,EG] |[M:5/8] [DGB]2 [CFA] [B,G]2 | %10
[M:1/8] d |[M:3/4] d2 d d2 B | B2 B B2 [DG] | .[EA]2 [G,CE] [G,B,D]2 [B,DG] | %14
 [EGB]2 [^CGA] [DFA]3 |[M:1/8] d |[M:3/4] d2 d d2 B | B2 B B2 [DG] | %18
 .[EA]2 [G,CE] [G,B,D]2 [B,EG][Q:1/4=97][Q:1/4=94][Q:1/4=91][Q:1/4=88][Q:1/4=84][Q:1/4=81][Q:1/4=78] | %19
 [DGB]2 [CFA] [B,G]3 |] %20
V:2
 z3 z2 [G,B,] | [G,B,D]2 [G,B,D] [G,B,D]2 [G,CD] | [G,DG]2 [G,DG] [G,DG]2[K:bass] [G,B,D] | %3
 [D,D]2 [D,D] [D,D]2 [D,D] | [D,D]2 [F,D][K:treble] [G,DG]3 |[M:1/8] [G,B,] | %6
[M:3/4] [G,B,D]2 [G,B,D] [G,B,D]2 [G,CE] | [G,DG]2 [G,DG] [G,DG]2[K:bass] [G,B,D] | %8
 z G C, G,,2 E, |[M:5/8] D,2 D, G,,2 |[M:1/8][K:treble] [G,B,G] | %11
[M:3/4] [G,B,G]2 [G,B,G] [G,B,G]2 [G,DG] | [G,DG]2 [G,DG] [G,DG]2[K:bass] [B,,G,] | %13
 z G C, G,,2 G, | G,2 E, D,3 |[M:1/8][K:treble] [G,B,G] |[M:3/4] [G,B,G]2 [G,B,G] [G,B,G]2 [G,DG] | %17
 [G,DG]2 [G,DG] [G,DG]2[K:bass] [B,,G,] | z G C, G,,2 E, | D,2 D, G,,3 |] %20
V:3
 x6 | x6 | x5[K:bass] x | x6 | x3[K:treble] x3 |[M:1/8] x |[M:3/4] x6 | x5[K:bass] x | C,2 z2 z2 | %9
[M:5/8] x5 |[M:1/8][K:treble] x |[M:3/4] x6 | x5[K:bass] x | [C,G,]2 z2 z2 | x6 | %15
[M:1/8][K:treble] x |[M:3/4] x6 | x5[K:bass] x | [C,G,]2 z2 z2 | x6 |] %20

